X:1
T:Maggies Reel
C:Tom Anderson
O:Shetland
R:Reel
M:C|
Q:1/2=120
K:D
%%MIDI gchord czczczcz
FE| "D"DFAB AFED| "Bm"d2 dA "G"BABd| "D"ABdA "Bm"BAFD| "Em"B,EEF "A7"EGFE|
    "D"DFAB "Em"AFED| defd "D"BAFA| d2 dB "D"AFED| "G"B,DDE "D"D2 :|
A2 | "D"defd ca^ga| "Bm"fdAF "G"BGFG| "D"Adcd "Bm"fdcd| "Em"Beef "A7"e2 A2|
"Bm"defd "A"ecAF| "G"GABG "D"AdFD| "G"GABG "A7"ABcA| "D"d2 dc d2 
A2 | "D"defd ca^ga| "Bm"fdAF "G"BGFG| "D"Adcd "Bm"fdcd| "Em"Beef e2 "A7"FE|
    "D"DFAB "Em"AFED| "D"defd BAFA| "D"d2 dB "D7"AFED| "G"B,DDE "D"D2 |]
